assets/illustrations/logo.svg

<svg width="176" height="136" viewBox="0 0 176 136" fill="none" xmlns="http://www.w3.org/2000/svg">
<g clip-path="url(#clip0_34_40)">
<rect x="15" y="15" width="146" height="106" fill="#D9D9D9"/>
<rect x="1.5" y="1.5" width="173" height="133" rx="3.5" fill="#093409"/>
<rect x="1.5" y="1.5" width="173" height="133" rx="3.5" stroke="#F2EFDE" stroke-width="3"/>
<rect x="15" y="15" width="146" height="106" fill="#093409"/>
<path d="M68 43C68 34.6667 63 18 43 18C23 18 18 34.6667 18 43C18 51.3333 23 68 43 68C63 68 68 84.6667 68 93C68 101.333 63 118 43 118C23 118 18 101.333 18 93" stroke="#F2EFDE" stroke-width="6"/>
<path d="M43 18H118V68C118 76.3333 113 93 93 93C73 93 68 76.3333 68 68" stroke="#F2EFDE" stroke-width="6"/>
<path d="M152.929 121V101H160.067V103.4H155.629V109.675H159.817V112.075H155.629V118.6H160.067V121H152.929Z" fill="#F2EFDE"/>
<path d="M137.363 121V101H141.488L142.788 107.35L144.325 118.6H144.938L144.438 108.825L144.238 101H146.863V121H142.55L141.175 114.137L139.95 103.387H139.3L139.763 113.425L139.975 121H137.363Z" fill="#F2EFDE"/>
<path d="M128.583 121V101H131.283V121H128.583Z" fill="#F2EFDE"/>
<path d="M117.943 121V103.4H115.068V101H123.531V103.4H120.656V121H117.943Z" fill="#F2EFDE"/>
<path d="M106.125 121.213C104.633 121.213 103.567 120.892 102.925 120.25C102.283 119.6 101.933 118.533 101.875 117.05C101.867 116.658 101.858 116.279 101.85 115.913C101.85 115.538 101.854 115.163 101.863 114.788C101.879 114.413 101.904 114.029 101.938 113.638H104.488C104.454 114.304 104.433 114.971 104.425 115.638C104.425 116.304 104.446 116.933 104.488 117.525C104.521 118.017 104.667 118.383 104.925 118.625C105.183 118.858 105.579 118.975 106.113 118.975C106.638 118.975 107.017 118.858 107.25 118.625C107.483 118.383 107.625 118.017 107.675 117.525C107.7 117.15 107.717 116.8 107.725 116.475C107.733 116.15 107.733 115.821 107.725 115.488C107.717 115.154 107.7 114.788 107.675 114.388C107.642 113.896 107.542 113.475 107.375 113.125C107.208 112.775 106.904 112.542 106.463 112.425L104.788 112C104.038 111.808 103.45 111.529 103.025 111.163C102.6 110.788 102.296 110.313 102.113 109.738C101.929 109.163 101.825 108.475 101.8 107.675C101.792 107.225 101.788 106.767 101.788 106.3C101.796 105.833 101.804 105.371 101.813 104.913C101.846 103.929 102.004 103.138 102.288 102.538C102.579 101.929 103.033 101.488 103.65 101.213C104.275 100.929 105.096 100.788 106.113 100.788C107.554 100.788 108.596 101.108 109.238 101.75C109.888 102.392 110.242 103.45 110.3 104.925C110.317 105.333 110.321 105.838 110.313 106.438C110.304 107.029 110.288 107.621 110.263 108.213H107.663C107.688 107.588 107.7 106.963 107.7 106.338C107.708 105.704 107.7 105.075 107.675 104.45C107.667 103.967 107.529 103.608 107.263 103.375C106.996 103.133 106.608 103.013 106.1 103.013C105.567 103.013 105.179 103.133 104.938 103.375C104.696 103.608 104.554 103.967 104.513 104.45C104.471 104.983 104.45 105.521 104.45 106.063C104.458 106.604 104.479 107.142 104.513 107.675C104.546 108.208 104.65 108.638 104.825 108.963C105 109.288 105.317 109.508 105.775 109.625L107.288 109.988C108.079 110.171 108.696 110.458 109.138 110.85C109.579 111.233 109.892 111.721 110.075 112.313C110.258 112.896 110.363 113.588 110.388 114.388C110.404 114.738 110.413 115.054 110.413 115.338C110.413 115.621 110.408 115.9 110.4 116.175C110.392 116.442 110.383 116.733 110.375 117.05C110.317 118.533 109.963 119.6 109.313 120.25C108.671 120.892 107.608 121.213 106.125 121.213Z" fill="#F2EFDE"/>
<path d="M160.213 18.9414C160.213 20.4331 159.892 21.4997 159.25 22.1414C158.6 22.7831 157.533 23.1331 156.05 23.1914C155.658 23.1997 155.279 23.2081 154.913 23.2164C154.538 23.2164 154.163 23.2122 153.788 23.2039C153.413 23.1872 153.029 23.1622 152.638 23.1289L152.638 20.5789C153.304 20.6122 153.971 20.6331 154.638 20.6414C155.304 20.6414 155.933 20.6206 156.525 20.5789C157.017 20.5456 157.383 20.3997 157.625 20.1414C157.858 19.8831 157.975 19.4872 157.975 18.9539C157.975 18.4289 157.858 18.0497 157.625 17.8164C157.383 17.5831 157.017 17.4414 156.525 17.3914C156.15 17.3664 155.8 17.3497 155.475 17.3414C155.15 17.3331 154.821 17.3331 154.488 17.3414C154.154 17.3497 153.788 17.3664 153.388 17.3914C152.896 17.4247 152.475 17.5247 152.125 17.6914C151.775 17.8581 151.542 18.1622 151.425 18.6039L151 20.2789C150.808 21.0289 150.529 21.6164 150.163 22.0414C149.788 22.4664 149.313 22.7706 148.738 22.9539C148.163 23.1372 147.475 23.2414 146.675 23.2664C146.225 23.2747 145.767 23.2789 145.3 23.2789C144.833 23.2706 144.371 23.2622 143.913 23.2539C142.929 23.2206 142.138 23.0622 141.538 22.7789C140.929 22.4872 140.488 22.0331 140.213 21.4164C139.929 20.7914 139.788 19.9706 139.788 18.9539C139.788 17.5122 140.108 16.4706 140.75 15.8289C141.392 15.1789 142.45 14.8247 143.925 14.7664C144.333 14.7497 144.838 14.7456 145.438 14.7539C146.029 14.7622 146.621 14.7789 147.213 14.8039L147.213 17.4039C146.588 17.3789 145.963 17.3664 145.338 17.3664C144.704 17.3581 144.075 17.3664 143.45 17.3914C142.967 17.3997 142.608 17.5372 142.375 17.8039C142.133 18.0706 142.013 18.4581 142.013 18.9664C142.013 19.4997 142.133 19.8872 142.375 20.1289C142.608 20.3706 142.967 20.5122 143.45 20.5539C143.983 20.5956 144.521 20.6164 145.063 20.6164C145.604 20.6081 146.142 20.5872 146.675 20.5539C147.208 20.5206 147.638 20.4164 147.963 20.2414C148.288 20.0664 148.508 19.7497 148.625 19.2914L148.988 17.7789C149.171 16.9872 149.458 16.3706 149.85 15.9289C150.233 15.4872 150.721 15.1747 151.313 14.9914C151.896 14.8081 152.588 14.7039 153.388 14.6789C153.738 14.6622 154.054 14.6539 154.338 14.6539C154.621 14.6539 154.9 14.6581 155.175 14.6664C155.442 14.6747 155.733 14.6831 156.05 14.6914C157.533 14.7497 158.6 15.1039 159.25 15.7539C159.892 16.3956 160.213 17.4581 160.213 18.9414Z" fill="#F2EFDE"/>
<path d="M160.212 33.0645C160.212 34.5811 159.896 35.6686 159.263 36.327C158.621 36.977 157.558 37.3103 156.075 37.327C153.408 37.3603 150.729 37.377 148.038 37.377C145.338 37.377 142.658 37.3603 140 37.327L140 34.627C141.775 34.652 143.6 34.6686 145.475 34.677C147.342 34.6853 149.212 34.6853 151.087 34.677C152.954 34.6686 154.775 34.6561 156.55 34.6395C157.025 34.6395 157.383 34.5061 157.625 34.2395C157.858 33.9728 157.975 33.5811 157.975 33.0645C157.975 32.5395 157.858 32.152 157.625 31.902C157.383 31.6436 157.025 31.5145 156.55 31.5145C154.775 31.4978 152.954 31.4853 151.087 31.477C149.212 31.4686 147.342 31.4686 145.475 31.477C143.6 31.477 141.775 31.4895 140 31.5145L140 28.8145C142.658 28.7728 145.337 28.752 148.038 28.752C150.729 28.752 153.408 28.7728 156.075 28.8145C157.558 28.8311 158.621 29.1686 159.263 29.827C159.896 30.477 160.212 31.5561 160.212 33.0645Z" fill="#F2EFDE"/>
<path d="M160 45.9312L140 45.9312L140 43.2312L160 43.2312L160 45.9312Z" fill="#F2EFDE"/>
<path d="M160 57.0738L140 57.0738L140 54.3738L157.6 54.3738L157.6 49.9113L160 49.9113L160 57.0738Z" fill="#F2EFDE"/>
<path d="M160.212 67.2344C160.212 68.751 159.896 69.8385 159.263 70.4969C158.621 71.1469 157.558 71.4802 156.075 71.4969C153.408 71.5302 150.729 71.5469 148.038 71.5469C145.338 71.5469 142.658 71.5302 140 71.4969L140 68.7969C141.775 68.8219 143.6 68.8385 145.475 68.8469C147.342 68.8552 149.212 68.8552 151.087 68.8469C152.954 68.8385 154.775 68.826 156.55 68.8094C157.025 68.8094 157.383 68.676 157.625 68.4094C157.858 68.1427 157.975 67.751 157.975 67.2344C157.975 66.7094 157.858 66.3219 157.625 66.0719C157.383 65.8135 157.025 65.6844 156.55 65.6844C154.775 65.6677 152.954 65.6552 151.087 65.6469C149.212 65.6385 147.342 65.6385 145.475 65.6469C143.6 65.6469 141.775 65.6594 140 65.6844L140 62.9844C142.658 62.9427 145.337 62.9219 148.038 62.9219C150.729 62.9219 153.408 62.9427 156.075 62.9844C157.558 63.001 158.621 63.3385 159.263 63.9969C159.896 64.6469 160.212 65.726 160.212 67.2344Z" fill="#F2EFDE"/>
<path d="M160.212 81.3375C160.212 82.3292 160.075 83.1208 159.8 83.7125C159.517 84.2958 159.071 84.7208 158.462 84.9875C157.846 85.2458 157.042 85.3875 156.05 85.4125C155.5 85.4292 154.933 85.4375 154.35 85.4375C153.758 85.4375 153.187 85.4292 152.637 85.4125L152.637 82.8625C153.012 82.8792 153.433 82.8917 153.9 82.9C154.358 82.9 154.817 82.9 155.275 82.9C155.733 82.8917 156.15 82.8792 156.525 82.8625C157.017 82.8458 157.383 82.7208 157.625 82.4875C157.858 82.2458 157.975 81.8625 157.975 81.3375C157.975 80.8125 157.858 80.4375 157.625 80.2125C157.383 79.9875 157.017 79.875 156.525 79.875L140 79.875L140 77.175L156.05 77.175C157.533 77.175 158.6 77.4875 159.25 78.1125C159.892 78.7375 160.212 79.8125 160.212 81.3375Z" fill="#F2EFDE"/>
</g>
<defs>
<clipPath id="clip0_34_40">
<rect width="176" height="136" fill="white"/>
</clipPath>
</defs>
</svg>

<svg width="176" height="136" fill="none" xmlns="http://www.w3.org/2000/svg"><g clip-path="url(#a)"><path fill="#D9D9D9" d="M15 15h146v106H15z"/><rect x="1.5" y="1.5" width="173" height="133" rx="3.5" fill="#093409"/><rect x="1.5" y="1.5" width="173" height="133" rx="3.5" stroke="#F2EFDE" stroke-width="3"/><path fill="#093409" d="M15 15h146v106H15z"/><path d="M68 43c0-8.333-5-25-25-25S18 34.667 18 43c0 8.333 5 25 25 25s25 16.667 25 25c0 8.333-5 25-25 25s-25-16.667-25-25" stroke="#F2EFDE" stroke-width="6"/><path d="M43 18h75v50c0 8.333-5 25-25 25S68 76.333 68 68" stroke="#F2EFDE" stroke-width="6"/><path d="M152.929 121v-20h7.138v2.4h-4.438v6.275h4.188v2.4h-4.188v6.525h4.438v2.4h-7.138Zm-15.566 0v-20h4.125l1.3 6.35 1.537 11.25h.613l-.5-9.775-.2-7.825h2.625v20h-4.313l-1.375-6.863-1.225-10.75h-.65l.463 10.038.212 7.575h-2.612Zm-8.78 0v-20h2.7v20h-2.7Zm-10.64 0v-17.6h-2.875V101h8.463v2.4h-2.875V121h-2.713Zm-11.818.213c-1.492 0-2.558-.321-3.2-.963-.642-.65-.992-1.717-1.05-3.2l-.025-1.137c0-.375.004-.75.013-1.125.016-.375.041-.759.075-1.15h2.55a51.301 51.301 0 0 0-.063 2c0 .666.021 1.295.063 1.887.033.492.179.858.437 1.1.258.233.654.35 1.188.35.525 0 .904-.117 1.137-.35.233-.242.375-.608.425-1.1.025-.375.042-.725.05-1.05.008-.325.008-.654 0-.987-.008-.334-.025-.7-.05-1.1-.033-.492-.133-.913-.3-1.263-.167-.35-.471-.583-.912-.7l-1.675-.425c-.75-.192-1.338-.471-1.763-.837a3.12 3.12 0 0 1-.912-1.425c-.184-.575-.288-1.263-.313-2.063-.008-.45-.012-.908-.012-1.375l.025-1.387c.033-.984.191-1.775.475-2.375a2.666 2.666 0 0 1 1.362-1.325c.625-.284 1.446-.425 2.463-.425 1.441 0 2.483.32 3.125.962.65.642 1.004 1.7 1.062 3.175.017.408.021.913.013 1.513a65.835 65.835 0 0 1-.05 1.775h-2.6c.025-.625.037-1.25.037-1.875.008-.634 0-1.263-.025-1.888-.008-.483-.146-.842-.412-1.075-.267-.242-.655-.362-1.163-.362-.533 0-.921.12-1.162.362-.242.233-.384.592-.425 1.075a20.532 20.532 0 0 0-.063 1.613c.008.541.029 1.079.063 1.612.033.533.137.963.312 1.288.175.325.492.545.95.662l1.513.363c.791.183 1.408.47 1.85.862.441.383.754.871.937 1.463.183.583.288 1.275.313 2.075a21.058 21.058 0 0 1 .012 1.787c-.008.267-.017.558-.025.875-.058 1.483-.412 2.55-1.062 3.2-.642.642-1.705.963-3.188.963Zm54.088-102.272c0 1.492-.321 2.559-.963 3.2-.65.642-1.717.992-3.2 1.05l-1.137.025c-.375 0-.75-.004-1.125-.012a28.518 28.518 0 0 1-1.15-.075v-2.55a53.35 53.35 0 0 0 2 .062c.666 0 1.295-.02 1.887-.062.492-.033.858-.18 1.1-.438.233-.258.35-.654.35-1.187 0-.525-.117-.904-.35-1.138-.242-.233-.608-.375-1.1-.425a25.721 25.721 0 0 0-1.05-.05 19.564 19.564 0 0 0-.987 0c-.334.009-.7.025-1.1.05-.492.034-.913.134-1.263.3-.35.167-.583.471-.7.913L151 20.279c-.192.75-.471 1.337-.837 1.762-.375.425-.85.73-1.425.913-.575.183-1.263.287-2.063.312a68.8 68.8 0 0 1-1.375.013l-1.387-.025c-.984-.033-1.775-.192-2.375-.475a2.67 2.67 0 0 1-1.325-1.363c-.284-.625-.425-1.445-.425-2.462 0-1.442.32-2.483.962-3.125.642-.65 1.7-1.004 3.175-1.063.408-.016.913-.02 1.513-.012.591.008 1.183.025 1.775.05v2.6a46.908 46.908 0 0 0-1.875-.038 35.57 35.57 0 0 0-1.888.025c-.483.009-.842.146-1.075.413-.242.267-.362.654-.362 1.162 0 .534.12.921.362 1.163.233.242.592.383 1.075.425a20.68 20.68 0 0 0 1.613.062 34.306 34.306 0 0 0 1.612-.062c.533-.033.963-.138 1.288-.313.325-.175.545-.491.662-.95l.363-1.512c.183-.792.47-1.408.862-1.85a3.108 3.108 0 0 1 1.463-.938c.583-.183 1.275-.287 2.075-.312.35-.017.666-.025.95-.025.283 0 .562.004.837.012.267.009.558.017.875.025 1.483.059 2.55.413 3.2 1.063.642.642.963 1.704.963 3.187Zm-.001 14.124c0 1.516-.316 2.604-.949 3.262-.642.65-1.705.983-3.188 1a643.735 643.735 0 0 1-16.075 0v-2.7a632.423 632.423 0 0 0 11.087.05 934.9 934.9 0 0 0 5.463-.038c.475 0 .833-.133 1.075-.4.233-.266.35-.658.35-1.174 0-.526-.117-.913-.35-1.163-.242-.258-.6-.387-1.075-.387-1.775-.017-3.596-.03-5.463-.038a624.894 624.894 0 0 0-5.612 0c-1.875 0-3.7.012-5.475.038v-2.7a512.4 512.4 0 0 1 16.075 0c1.483.016 2.546.354 3.188 1.012.633.65.949 1.73.949 3.238ZM160 45.931h-20v-2.7h20v2.7Zm0 11.143h-20v-2.7h17.6V49.91h2.4v7.163Zm.212 10.16c0 1.517-.316 2.605-.949 3.263-.642.65-1.705.983-3.188 1a643.735 643.735 0 0 1-16.075 0v-2.7a632.423 632.423 0 0 0 11.087.05c1.867-.008 3.688-.021 5.463-.038.475 0 .833-.133 1.075-.4.233-.266.35-.658.35-1.175 0-.525-.117-.912-.35-1.162-.242-.258-.6-.388-1.075-.388-1.775-.016-3.596-.029-5.463-.037a624.894 624.894 0 0 0-5.612 0c-1.875 0-3.7.012-5.475.037v-2.7a512.4 512.4 0 0 1 16.075 0c1.483.017 2.546.355 3.188 1.013.633.65.949 1.729.949 3.237Zm0 14.104c0 .991-.137 1.783-.412 2.375a2.592 2.592 0 0 1-1.338 1.275c-.616.258-1.42.4-2.412.424a56.065 56.065 0 0 1-3.413 0v-2.55c.375.017.796.03 1.263.038h1.375c.458-.008.875-.02 1.25-.038.492-.016.858-.141 1.1-.374.233-.242.35-.626.35-1.15 0-.525-.117-.9-.35-1.125-.242-.225-.608-.338-1.1-.338H140v-2.7h16.05c1.483 0 2.55.313 3.2.938.642.624.962 1.7.962 3.225Z" fill="#F2EFDE"/></g><defs><clipPath id="a"><path fill="#fff" d="M0 0h176v136H0z"/></clipPath></defs></svg>
